assets/images/no-image.svg

<svg xmlns="http://www.w3.org/2000/svg" width="330" height="406" fill="none"><g clip-path="url(#a)"><path fill="#E0E2FA" d="M322.764 0H7.014A7.014 7.014 0 0 0 0 7.014v391.98a7.013 7.013 0 0 0 7.014 7.013h315.75a7.013 7.013 0 0 0 7.014-7.013V7.014A7.014 7.014 0 0 0 322.764 0"/><path fill="#9192A7" d="m148.686 106.723-63.041 18.486a8.397 8.397 0 0 0-5.695 10.421l20.731 70.699c1.305 4.45 5.97 7 10.42 5.695l63.042-18.486a8.4 8.4 0 0 0 5.695-10.421l-20.731-70.699a8.4 8.4 0 0 0-10.421-5.695"/><path fill="url(#b)" stroke="#fff" stroke-linecap="round" stroke-linejoin="round" stroke-width="5.398" d="m238.121 93.938-94.667-27.72a4.595 4.595 0 0 0-5.702 3.12L107.747 171.81a4.596 4.596 0 0 0 3.12 5.702l94.666 27.72a4.597 4.597 0 0 0 5.703-3.12l30.004-102.47a4.596 4.596 0 0 0-3.119-5.703"/><path fill="#C1C0D4" stroke="#fff" stroke-linecap="round" stroke-linejoin="round" stroke-width="2.257" d="M228.895 102.237 147.52 78.41l-21.833 74.563 81.375 23.828z"/><path fill="#fff" stroke="#fff" stroke-linecap="round" stroke-linejoin="round" stroke-width="2.257" d="M228.895 102.237 147.52 78.41l-10.189 34.796 81.375 23.828z"/><path fill="#C1C0D4" fill-rule="evenodd" d="m142.302 114.662 8.971-7.005 12.221-4.546 1.73 3.848 4.133-5.75 1.503-.096 3.575-4.028 21.092 38.559" clip-rule="evenodd"/><path stroke="#fff" stroke-linecap="round" stroke-linejoin="round" stroke-width="2.257" d="m142.302 114.662 8.971-7.005 12.221-4.546 1.73 3.848 4.133-5.75 1.503-.096 3.575-4.028 21.092 38.559"/><path fill="#9294AC" fill-rule="evenodd" stroke="#fff" stroke-linecap="round" stroke-linejoin="round" stroke-width="2.257" d="M174.435 97.085a153 153 0 0 1-1.419 15.394l-3.309-2.257-6.213-7.112-1.37 7.951-1.471 4.029.192 5.521 12.697 1.603 14.954.577-4.163-15.15-2.332 2.004-3.421-4.982z" clip-rule="evenodd"/><path fill="#C1C0D4" fill-rule="evenodd" d="m160.731 125.455 17.181-8.359 3.536-.707 6.063-6.174 5.352-2.337 21.092 38.559" clip-rule="evenodd"/><path stroke="#fff" stroke-linecap="round" stroke-linejoin="round" stroke-width="2.257" d="m160.731 125.455 17.181-8.359 3.536-.707 6.063-6.174 5.352-2.337 21.092 38.559"/><path fill="#9294AC" fill-rule="evenodd" stroke="#fff" stroke-linecap="round" stroke-linejoin="round" stroke-width="2.257" d="m192.863 107.878 2.029 15.151-1.461 4.989-1.461 4.989 2.777 4.315a14.1 14.1 0 0 1 4.481-1.513c2.796-.441 5.647-.03 8.477.032 1.149.025 2.326-.013 3.4-.421q.411-.157.79-.381l-4.971-1.455-4.747-8.685-2.573-9.555-2.128.967z" clip-rule="evenodd"/><path fill="#fff" fill-rule="evenodd" d="M150.542 160.251c.397-1.611-.607-3.345 4.325-4.25 6.052-1.111 22.602.161 28.122-2.558 4.084-2.011-9.84-9.658-6.25-12.457 1.627-1.27 10.751-.445 15.08-1.031 4.104-.556 3.47-2.547 6.658-3.443 3.08-.866 12.285.04 13.418-1.473-2.236 1.238-12.395.041-16.368.605-4.193.594-4.524 2.26-9.621 2.487-5.491.244-15.768-.92-18.499.073-5.721 2.079 5.698 9.332-.227 10.728-8.023 1.89-26.846-.072-35.066.526-5.681.414-5.569 1.563-6.427 3.516" clip-rule="evenodd"/><path stroke="#fff" stroke-linecap="round" stroke-linejoin="round" stroke-width="2.257" d="M150.542 160.251c.397-1.611-.607-3.345 4.325-4.25 6.052-1.111 22.602.161 28.122-2.558 4.084-2.011-9.84-9.658-6.25-12.457 1.627-1.27 10.751-.445 15.08-1.031 4.104-.556 3.47-2.547 6.658-3.443 3.08-.866 12.285.04 13.418-1.473-2.236 1.238-12.395.041-16.368.605-4.193.594-4.524 2.26-9.621 2.487-5.491.244-15.768-.92-18.499.073-5.721 2.079 5.698 9.332-.227 10.728-8.023 1.89-26.846-.072-35.066.526-5.681.414-5.569 1.563-6.427 3.516"/><path fill="#767676" d="M103.861 265.062v23.273h-4.25l-10.125-14.648h-.17v14.648h-4.92v-23.273h4.317l10.046 14.636h.204v-14.636zm25.452 11.636q0 3.807-1.443 6.478-1.433 2.67-3.909 4.079-2.466 1.398-5.546 1.398-3.102 0-5.568-1.409t-3.898-4.08q-1.431-2.67-1.432-6.466 0-3.806 1.432-6.477 1.432-2.67 3.898-4.068 2.466-1.409 5.568-1.409 3.08 0 5.546 1.409 2.477 1.398 3.909 4.068 1.443 2.67 1.443 6.477m-4.989 0q0-2.466-.738-4.159-.728-1.693-2.057-2.568-1.33-.875-3.114-.875t-3.114.875q-1.329.875-2.068 2.568-.727 1.693-.727 4.159t.727 4.16q.74 1.692 2.068 2.568 1.33.875 3.114.875t3.114-.875 2.057-2.568q.738-1.694.738-4.16m20.96-11.636v23.273h-4.92v-23.273zm4.049 0h6.068l6.409 15.636h.273l6.409-15.636h6.068v23.273h-4.773v-15.148h-.193l-6.023 15.034h-3.25l-6.022-15.091h-.194v15.205h-4.772zm33.292 23.273h-5.272l8.034-23.273h6.341l8.022 23.273h-5.272l-5.83-17.955h-.182zm-.329-9.148h12.454v3.841h-12.454zm34.593-6.602a5.1 5.1 0 0 0-.67-1.466 4.1 4.1 0 0 0-1.057-1.091 4.5 4.5 0 0 0-1.409-.693 6 6 0 0 0-1.739-.239q-1.783 0-3.136.887-1.341.885-2.091 2.579-.75 1.681-.75 4.114t.739 4.136q.738 1.705 2.091 2.602 1.352.887 3.193.887 1.67 0 2.852-.591 1.194-.603 1.818-1.693.637-1.092.637-2.58l1 .148h-6v-3.705h9.738v2.932q0 3.068-1.295 5.273a8.83 8.83 0 0 1-3.568 3.386q-2.272 1.182-5.205 1.182-3.273 0-5.75-1.443-2.477-1.455-3.863-4.125-1.375-2.682-1.375-6.364 0-2.83.818-5.045.83-2.228 2.318-3.773a10 10 0 0 1 3.466-2.352q1.977-.807 4.284-.807 1.977 0 3.682.579a9.8 9.8 0 0 1 3.022 1.614 8.7 8.7 0 0 1 2.171 2.489 8.4 8.4 0 0 1 1.079 3.159zm8.912 15.75v-23.273h15.682v4.057h-10.761v5.545h9.954v4.057h-9.954v5.557h10.807v4.057zM80.719 328.335h-5.273l8.034-23.273h6.341l8.023 23.273h-5.273l-5.83-17.955h-.181zm-.33-9.148h12.455v3.841H80.39zm21.554-14.125 5.625 17.682h.216l5.637-17.682h5.454l-8.022 23.273h-6.341l-8.034-23.273zm20.651 23.273h-5.273l8.034-23.273h6.341l8.023 23.273h-5.273l-5.829-17.955h-.182zm-.33-9.148h12.455v3.841h-12.455zm25.177-14.125v23.273h-4.921v-23.273zm4.048 23.273v-23.273h4.92v19.216h9.978v4.057zm22.761 0h-5.272l8.034-23.273h6.341l8.022 23.273h-5.272l-5.83-17.955h-.182zm-.329-9.148h12.454v3.841h-12.454zm20.255 9.148v-23.273h9.319q2.568 0 4.284.761 1.716.762 2.579 2.114.864 1.34.864 3.091 0 1.363-.546 2.398a4.7 4.7 0 0 1-1.5 1.682 6.2 6.2 0 0 1-2.159.92v.227a5.2 5.2 0 0 1 2.489.75q1.17.693 1.898 1.943.727 1.239.727 2.955 0 1.852-.92 3.307-.91 1.443-2.694 2.284t-4.397.841zm4.921-4.023h4.011q2.057 0 3-.784.943-.795.943-2.114 0-.966-.465-1.704-.466-.74-1.33-1.159-.852-.421-2.034-.421h-4.125zm0-9.511h3.648q1.01 0 1.795-.353.795-.363 1.25-1.022.466-.66.466-1.58 0-1.262-.898-2.034-.887-.773-2.522-.773h-3.739zm16.236 13.534v-23.273h4.92v19.216h9.977v4.057zm18.156 0v-23.273h15.682v4.057h-10.762v5.545h9.955v4.057h-9.955v5.557h10.807v4.057z"/></g><defs><linearGradient id="b" x1="202.454" x2="172.197" y1="89.02" y2="186.628" gradientUnits="userSpaceOnUse"><stop stop-color="#BAB8C9"/><stop offset="1" stop-color="#9596A8"/></linearGradient><clipPath id="a"><path fill="#fff" d="M0 0h329.778v406.007H0z"/></clipPath></defs></svg>

<svg width="330" height="406" viewBox="0 0 330 406" fill="none" xmlns="http://www.w3.org/2000/svg">
<g clip-path="url(#clip0_61_2071)">
<path d="M322.764 0H7.01361C3.1401 0 0 3.1401 0 7.01361V398.994C0 402.867 3.1401 406.007 7.01361 406.007H322.764C326.638 406.007 329.778 402.867 329.778 398.994V7.01361C329.778 3.1401 326.638 0 322.764 0Z" fill="#E0E2FA"/>
<path d="M148.686 106.723L85.6447 125.209C81.1945 126.514 78.6448 131.179 79.9497 135.63L100.681 206.329C101.986 210.779 106.651 213.329 111.101 212.024L174.143 193.538C178.593 192.233 181.143 187.567 179.838 183.117L159.107 112.418C157.802 107.968 153.136 105.418 148.686 106.723Z" fill="#9192A7"/>
<path d="M238.121 93.938L143.454 66.2188C141.018 65.5054 138.465 66.9021 137.752 69.3382L107.747 171.809C107.034 174.245 108.431 176.798 110.867 177.511L205.533 205.231C207.969 205.944 210.523 204.547 211.236 202.111L241.24 99.6406C241.954 97.2045 240.557 94.6514 238.121 93.938Z" fill="url(#paint0_linear_61_2071)" stroke="white" stroke-width="5.398" stroke-linecap="round" stroke-linejoin="round"/>
<path d="M228.895 102.237L147.52 78.4097L125.687 152.973L207.062 176.801L228.895 102.237Z" fill="#C1C0D4" stroke="white" stroke-width="2.25674" stroke-linecap="round" stroke-linejoin="round"/>
<path d="M228.895 102.237L147.52 78.4097L137.331 113.206L218.706 137.034L228.895 102.237Z" fill="white" stroke="white" stroke-width="2.25674" stroke-linecap="round" stroke-linejoin="round"/>
<path fill-rule="evenodd" clip-rule="evenodd" d="M142.302 114.662L151.273 107.657L163.494 103.111L165.224 106.959L169.357 101.209L170.86 101.113L174.435 97.0849L195.527 135.644" fill="#C1C0D4"/>
<path d="M142.302 114.662L151.273 107.657L163.494 103.111L165.224 106.959L169.357 101.209L170.86 101.113L174.435 97.0849L195.527 135.644" stroke="white" stroke-width="2.25674" stroke-linecap="round" stroke-linejoin="round"/>
<path fill-rule="evenodd" clip-rule="evenodd" d="M174.435 97.0848C174.314 100.013 174.108 102.938 173.819 105.855C173.599 108.068 173.332 110.277 173.016 112.479L169.707 110.222L163.494 103.11L162.124 111.061L160.653 115.09L160.845 120.611L173.542 122.214L188.496 122.791L184.333 107.641L182.001 109.645L178.58 104.663L174.435 97.0848Z" fill="#9294AC" stroke="white" stroke-width="2.25674" stroke-linecap="round" stroke-linejoin="round"/>
<path fill-rule="evenodd" clip-rule="evenodd" d="M160.731 125.455L177.912 117.096L181.448 116.389L187.511 110.215L192.863 107.878L213.955 146.437" fill="#C1C0D4"/>
<path d="M160.731 125.455L177.912 117.096L181.448 116.389L187.511 110.215L192.863 107.878L213.955 146.437" stroke="white" stroke-width="2.25674" stroke-linecap="round" stroke-linejoin="round"/>
<path fill-rule="evenodd" clip-rule="evenodd" d="M192.863 107.878L194.892 123.029L193.431 128.018L191.97 133.007L194.747 137.322C196.141 136.57 197.663 136.056 199.228 135.809C202.024 135.368 204.875 135.779 207.705 135.841C208.854 135.866 210.031 135.828 211.105 135.42C211.379 135.316 211.643 135.188 211.895 135.039L206.924 133.584L202.177 124.899L199.604 115.344L197.476 116.311L192.863 107.878Z" fill="#9294AC" stroke="white" stroke-width="2.25674" stroke-linecap="round" stroke-linejoin="round"/>
<path fill-rule="evenodd" clip-rule="evenodd" d="M150.542 160.251C150.939 158.64 149.935 156.906 154.867 156.001C160.919 154.89 177.469 156.162 182.989 153.443C187.073 151.432 173.149 143.785 176.739 140.986C178.366 139.716 187.49 140.541 191.819 139.955C195.923 139.399 195.289 137.408 198.477 136.512C201.557 135.646 210.762 136.552 211.895 135.039C209.659 136.277 199.5 135.08 195.527 135.644C191.334 136.238 191.003 137.904 185.906 138.131C180.415 138.375 170.138 137.211 167.407 138.204C161.686 140.283 173.105 147.536 167.18 148.932C159.157 150.822 140.334 148.86 132.114 149.458C126.433 149.872 126.545 151.021 125.687 152.974" fill="white"/>
<path d="M150.542 160.251C150.939 158.64 149.935 156.906 154.867 156.001C160.919 154.89 177.469 156.162 182.989 153.443C187.073 151.432 173.149 143.785 176.739 140.986C178.366 139.716 187.49 140.541 191.819 139.955C195.923 139.399 195.289 137.408 198.477 136.512C201.557 135.646 210.762 136.552 211.895 135.039C209.659 136.277 199.5 135.08 195.527 135.644C191.334 136.238 191.003 137.904 185.906 138.131C180.415 138.375 170.138 137.211 167.407 138.204C161.686 140.283 173.105 147.536 167.18 148.932C159.157 150.822 140.334 148.86 132.114 149.458C126.433 149.872 126.545 151.021 125.687 152.974" stroke="white" stroke-width="2.25674" stroke-linecap="round" stroke-linejoin="round"/>
<path d="M103.861 265.062V288.335H99.6111L89.4861 273.687H89.3156V288.335H84.3952V265.062H88.7133L98.7588 279.698H98.9633V265.062H103.861ZM129.313 276.698C129.313 279.236 128.832 281.395 127.87 283.176C126.915 284.956 125.612 286.316 123.961 287.255C122.317 288.187 120.468 288.653 118.415 288.653C116.347 288.653 114.491 288.183 112.847 287.244C111.203 286.304 109.904 284.945 108.949 283.164C107.995 281.384 107.517 279.229 107.517 276.698C107.517 274.161 107.995 272.001 108.949 270.221C109.904 268.441 111.203 267.085 112.847 266.153C114.491 265.214 116.347 264.744 118.415 264.744C120.468 264.744 122.317 265.214 123.961 266.153C125.612 267.085 126.915 268.441 127.87 270.221C128.832 272.001 129.313 274.161 129.313 276.698ZM124.324 276.698C124.324 275.054 124.078 273.668 123.586 272.539C123.101 271.411 122.415 270.554 121.529 269.971C120.642 269.388 119.604 269.096 118.415 269.096C117.226 269.096 116.188 269.388 115.301 269.971C114.415 270.554 113.726 271.411 113.233 272.539C112.748 273.668 112.506 275.054 112.506 276.698C112.506 278.342 112.748 279.729 113.233 280.858C113.726 281.986 114.415 282.842 115.301 283.426C116.188 284.009 117.226 284.301 118.415 284.301C119.604 284.301 120.642 284.009 121.529 283.426C122.415 282.842 123.101 281.986 123.586 280.858C124.078 279.729 124.324 278.342 124.324 276.698ZM145.284 265.062V288.335H140.364V265.062H145.284ZM149.333 265.062H155.401L161.81 280.698H162.083L168.492 265.062H174.56V288.335H169.787V273.187H169.594L163.571 288.221H160.321L154.299 273.13H154.105V288.335H149.333V265.062ZM182.625 288.335H177.353L185.387 265.062H191.728L199.75 288.335H194.478L188.648 270.38H188.466L182.625 288.335ZM182.296 279.187H194.75V283.028H182.296V279.187ZM216.889 272.585C216.73 272.032 216.507 271.543 216.219 271.119C215.931 270.687 215.579 270.323 215.162 270.028C214.753 269.725 214.283 269.494 213.753 269.335C213.23 269.176 212.651 269.096 212.014 269.096C210.825 269.096 209.78 269.392 208.878 269.983C207.984 270.573 207.287 271.433 206.787 272.562C206.287 273.683 206.037 275.054 206.037 276.676C206.037 278.297 206.283 279.676 206.776 280.812C207.268 281.948 207.965 282.816 208.867 283.414C209.768 284.005 210.833 284.301 212.06 284.301C213.174 284.301 214.124 284.104 214.912 283.71C215.708 283.308 216.314 282.744 216.73 282.017C217.155 281.289 217.367 280.429 217.367 279.437L218.367 279.585H212.367V275.88H222.105V278.812C222.105 280.858 221.674 282.615 220.81 284.085C219.946 285.547 218.757 286.676 217.242 287.471C215.727 288.259 213.992 288.653 212.037 288.653C209.855 288.653 207.939 288.172 206.287 287.21C204.636 286.24 203.348 284.865 202.424 283.085C201.507 281.297 201.049 279.176 201.049 276.721C201.049 274.835 201.321 273.153 201.867 271.676C202.42 270.191 203.193 268.933 204.185 267.903C205.177 266.873 206.333 266.089 207.651 265.551C208.969 265.013 210.397 264.744 211.935 264.744C213.253 264.744 214.48 264.937 215.617 265.323C216.753 265.702 217.761 266.24 218.639 266.937C219.526 267.634 220.249 268.464 220.81 269.426C221.371 270.38 221.73 271.433 221.889 272.585H216.889ZM225.801 288.335V265.062H241.483V269.119H230.722V274.664H240.676V278.721H230.722V284.278H241.529V288.335H225.801Z" fill="#767676"/>
<path d="M80.719 328.335H75.4463L83.4804 305.062H89.8213L97.844 328.335H92.5713L86.7418 310.38H86.5599L80.719 328.335ZM80.3895 319.187H92.844V323.028H80.3895V319.187ZM101.943 305.062L107.568 322.744H107.784L113.421 305.062H118.875L110.853 328.335H104.512L96.4776 305.062H101.943ZM122.594 328.335H117.321L125.355 305.062H131.696L139.719 328.335H134.446L128.617 310.38H128.435L122.594 328.335ZM122.264 319.187H134.719V323.028H122.264V319.187ZM147.441 305.062V328.335H142.52V305.062H147.441ZM151.489 328.335V305.062H156.409V324.278H166.387V328.335H151.489ZM174.25 328.335H168.978L177.012 305.062H183.353L191.375 328.335H186.103L180.273 310.38H180.091L174.25 328.335ZM173.921 319.187H186.375V323.028H173.921V319.187ZM194.176 328.335V305.062H203.495C205.207 305.062 206.635 305.316 207.779 305.823C208.923 306.331 209.782 307.036 210.358 307.937C210.934 308.831 211.222 309.861 211.222 311.028C211.222 311.937 211.04 312.736 210.676 313.426C210.313 314.108 209.813 314.668 209.176 315.108C208.548 315.539 207.828 315.846 207.017 316.028V316.255C207.904 316.293 208.733 316.543 209.506 317.005C210.286 317.467 210.919 318.115 211.404 318.948C211.889 319.774 212.131 320.759 212.131 321.903C212.131 323.138 211.824 324.24 211.211 325.21C210.604 326.172 209.707 326.933 208.517 327.494C207.328 328.054 205.862 328.335 204.12 328.335H194.176ZM199.097 324.312H203.108C204.479 324.312 205.479 324.051 206.108 323.528C206.737 322.998 207.051 322.293 207.051 321.414C207.051 320.77 206.896 320.202 206.586 319.71C206.275 319.217 205.832 318.831 205.256 318.551C204.688 318.27 204.01 318.13 203.222 318.13H199.097V324.312ZM199.097 314.801H202.745C203.419 314.801 204.017 314.683 204.54 314.448C205.07 314.206 205.487 313.865 205.79 313.426C206.101 312.986 206.256 312.46 206.256 311.846C206.256 311.005 205.957 310.327 205.358 309.812C204.767 309.297 203.926 309.039 202.836 309.039H199.097V314.801ZM215.333 328.335V305.062H220.253V324.278H230.23V328.335H215.333ZM233.489 328.335V305.062H249.171V309.119H238.409V314.664H248.364V318.721H238.409V324.278H249.216V328.335H233.489Z" fill="#767676"/>
</g>
<defs>
<linearGradient id="paint0_linear_61_2071" x1="202.454" y1="89.0204" x2="172.197" y2="186.628" gradientUnits="userSpaceOnUse">
<stop stop-color="#BAB8C9"/>
<stop offset="1" stop-color="#9596A8"/>
</linearGradient>
<clipPath id="clip0_61_2071">
<rect width="329.778" height="406.007" fill="white"/>
</clipPath>
</defs>
</svg>
